X:1
T:Facti sunt
T:Ingegneri edit BMarble
T:Facti sunt
T:Copyright © 2016 by The Choral Public Domain Library. Edition may be freely distributed, duplicated, performed or recorded.
T:Copyright © 2016 by The Choral Public Domain Library. Edition may be freely distributed, duplicated, performed or recorded.
T:Copyright © 2016 by The Choral Public Domain Library. Edition may be freely distributed, duplicated, performed or recorded.
T:Copyright © 2016 by The Choral Public Domain Library. Edition may be freely distributed, duplicated, performed or recorded.
T:Copyright © 2016 by The Choral Public Domain Library. Edition may be freely distributed, duplicated, performed or recorded.
T:Copyright © 2016 by The Choral Public Domain Library. Edition may be freely distributed, duplicated, performed or recorded.
C:Ingegneri
C:edit BMarble
Z:Copyright © 2016 by The Choral Public Domain Library. Edition may be freely distributed, duplicated, performed or recorded.
%%score [ 1 2 3 4 ]
L:1/8
Q:1/4=84
M:4/4
K:F
V:1 treble-8 transpose=-12 nm="Tenor" snm="T."
V:2 treble-8 transpose=-12 nm="Tenor" snm="T."
V:3 bass nm="Baritone" snm="Bar."
V:4 bass nm="Bass" snm="B."
V:1
"^Lsmentations 1:5Her enemies have been made her leaders; her adversaries have been enriched. For the Lord has spoken against her, because of the multitude of her iniquities. Her little ones have been led into captivity before the face of the tribulator." z4 d4- | %1
w: Fa-|
 d4 c4 | B2 A4 A2 | d8 | c2 B2 A3 A | G2 d4 d2 | d4 d2 B2 | c4 d2 c2 | c2 d2 c2 B2 | A4 z4 | %10
w: * cti|sunt ho- stes|e-|jus in ca- pi-|te, i- ni-|mi- ci il-|li- us lo-|cu- ple- ta- ti|sunt:|
 d4 d4 | =e6 e2 | e2 e2 f2 f2 | f2 e4 f2 | d8 | ^c4 z2 c2- | c2 d2 d2 ^c2 | d2 e2 f2 e2 | %18
w: qui- a|Do- mi-|nus lo- cu- tus|est su- per|e-|am pro-|* pter mul- ti-|tu- di- nem i-|
 d2 ^c2 d4- | d2 d2 d4 | d8 || d6 d2 | d8 | ^c4 d2 d2- | d2 d2 (f3 e/d/ | c4) d4- | d2 d2 d2 d2 | %27
w: ni- qui- ta-|* tum e-|jus:|par- vu-|li|e- jus du-|* cti sunt _ _|_ in|_ ca- pti- vi-|
 B4 (A3 G/F/ | G4) d4- | d4 A4 | c3 c G4 | d6 d2 | (B3 c d4) | d8 || %34
w: ta- tem _ _|_ an-|* te|fa- ci- em|tri- bu-|lan- * *|tis.|
"^Lsmentations 1:6And all her elegance has departed, from the daughter of Zion. Her leaders have become like rams that cannot find pasture, and they have gone away without strength before the face of the pursuer." z8 | %35
w: |
 z4 z2 d2- | d2 c2 d2 _e2 | d4 d4 | d6 d2 | B4 c4 | d2 d4 d2 | d2 e2 f4 | e4 z2 d2- | %43
w: Et|_ e- gres- sus|est a|fi- li-|a Si-|on o- mni|de- cor e-|jus: fa-|
 d2 d2 d2 _e2- | e2 !courtesy!_e2 e4 | (d4 c4) | d4 d4 | c2 d2 B4 | c4 d4 | z4 z2 f2- | %50
w: * cti sunt prin-|* ci- pes|e- *|jus va-|lut a- ri-|e- tes,|non|
 f2 e2 c3 d | e4 f2 d2- | d2 c2 d4 | z2 f4 e2 | c2 d2 _e4 | d2 d4 d2 | d8 || d4 d2 d2 | =e4 e4 | %59
w: _ in- ve- ni-|en- tes pa-|* scu- a,|non in-|ve- ni- en-|tes pa- scu-|a:|et a- bi-|e- runt|
 z4 f4 | d2 d4 d2 | f6 f2 | f4 z4 | d4 c4 | d6 d2 | d4 d4- | d2 A2 (Bc d2-) | (d2 ^c=B c4) | d8 || %69
w: ab-|sque for- ti-|tu- di-|ne|an- te|fa- ci-|am sub-|* se- quen- * *||tis.|
 d8- | d4 =c4 | _B4 A2 f2- | f2 f4 d2 | d2 d2 d3 c | d2 d2 d3 d | d2 d4 c2- | c2 A2 d2 d2- | %77
w: Je-|* ru-|sa- lem, Je-|* ru- sa-|lem con- ver- te-|re, con- ver- te-|re ad Do-|* mi- num, ad|
 d2 f4 _e2 | d4 d4- | d4 _e4 | d8 | d8 |] %82
w: _ Do- mi-|num De-|* um|tu-|um.|
V:2
 z8 | z8 | z8 | z8 | z8 | z2 B4 A2 | B4 A2 B2 | A4 B2 A2 | A2 B2 A2 G2 | ^F4 A4- | A4 =B4 | c6 c2 | %12
w: |||||i- ni-|mi- ci il-|li- us lo-|cu- ple- ta- ti|sunt: qui-|* a|Do- mi-|
 c2 c2 c2 d2 | c2 c2 c2 A2- | (A2 GF G4) | A4 z2 A2- | A2 A2 A2 A2 | A2 c2 c2 c2 | A2 A2 A4- | %19
w: nus lo- cu- tus|est su- per e-||am pro-|* pter mul- ti-|tu- di- nem i-|ni- qui- ta-|
 A2 A2 B4 | A8 || A6 A2 | A4 B4 | A4 A4- | A2 B2 c4 | z2 F4 F2 | F4 F4 | G4 C2 c2- | c2 G2 B3 B | %29
w: * tum e-|jus:|par- vu-|li e-|jus du-|* cti sunt|in ca-|pti- vi-|ta- tem an-|* te fa- ci-|
 F6 A2- | (AB c4) G2 | (B3 A/G/ F4 | G3 A B4) | A8 || z8 | z2 G4 ^F2 | G2 A2 G4- | G4 =F4 | B4 A4 | %39
w: em tri-|* * * bu-|lan- * * *||tis.||Et e-|gres- sus est|_ a|fi- li-|
 G4 G4 | A2 A4 A2 | A2 c2 c4 | c4 z2 F2- | F2 F2 F2 G2- | G2 G2 G4 | F8 | F4 z4 | z4 z2 B2- | %48
w: a Si-|on o- mni|de- cor e-|jus: fa-|* cti sunt prin-|* ci- pes|e-|jus|non|
 B2 A2 F2 G2 | (A3 G F2) D2 | G3 G A4 | z2 c4 B2 | G2 A2 B4 | A4 z2 c2- | c2 B2 G2 A2 | %55
w: _ in- ve- ni-|en- * * tes|pa- scu- a,|non in-|ve- ni- en-|tes, non|_ in- ve- ni-|
 B2 B2 B3 B | A8 || B4 A2 =B2 | c4 c2 c2- | c2 A2 (d3 c | B2) G2 (d2 cB | c6) c2 | d4 z4 | B4 A4 | %64
w: en- tes pa- scu-|a:|et a- bi-|e- runt ab-|* sque for- *|* ti- tu- * *|* di-|ne|an- te|
 B6 B2 | B4 A4- | A4 G4 | A8 | A8 || B8 | B4 G4 | G4 z2 d2- | d2 c4 B2 | A2 A2 B3 A | B2 B2 A3 G | %75
w: fa- ci-|am sub-|* se-|quen-|tis.|Je-|ru- sa-|lem, Je-|* ru- sa-|lem con- ver- te-|re, con- ver- te-|
 F2 B2 G4 | A4 B4 | z2 d2 c4 | B2 A2 B4 | F4 (c3 B | A8) | =B8 |] %82
w: re ad Do-|mi- num,|ad Do-|mi- num De-|um tu- *||um.|
V:3
 B,8 | A,4 G,4- | G,2 F,4 =E,2 | F,6 G,2 | A,2 G,4 ^F,2 | G,2 G,4 ^F,2 | G,4 D,2 G,2 | %7
w: Fa-|cti sunt|_ ho- stes|e- jus|in ca- pi-|te, i- ni-|mi- ci il-|
 =F,4 B,,2 F,2 | F,2 D,2 F,2 G,2 | D,4 ^F,4- | F,4 G,4 | G,6 G,2 | G,2 G,2 A,2 B,2 | A,2 G,4 F,2 | %14
w: li- us lo-|cu- ple- ta- ti|sunt: qui-|* a|Do- mi-|nus lo- cu- tus|est su- per|
 (F,4 D,4) | E,4 z2 E,2- | E,2 F,2 F,2 E,2 | F,2 G,2 A,2 G,2 | F,2 E,2 ^F,4- | F,2 ^F,2 G,4 | %20
w: e- *|am pro-|* pter mul- ti-|tu- di- nem i-|ni- qui- ta-|* tum e-|
 ^F,8 || ^F,6 F,2 | ^F,4 G,4 | E,4 F,4- | F,2 G,2 A,4- | A,4 z4 | D,6 D,2 | D,2 D,2 F,4 | E,4 G,4 | %29
w: jus:|par- vu-|li e-|jus du-|* cti sunt|_|in ca-|pti- vi- ta-|tem an-|
 D,4 F,3 F, | E,8 | G,4 D,4- | D,4 G,4- | (G,2 ^F,E,) F,4 || A,6 B,2 | A,2 G,2 A,4 | z4 B,4 | %37
w: te fa- ci-|em|tri- bu-|* lan-|* * * tis.|Et e-|gres- sus est|a|
 B,6 A,2 | G,4 ^F,4 | G,4 z4 | =F,6 F,2 | F,2 G,2 A,4 | G,4 z2 B,2- | B,2 B,2 B,2 B,2- | %44
w: fi- li-|a Si-|on|o- mni|de- cor e-|jus: fa-|* cti sunt prin-|
 B,2 C2 C4 | (A,2 B,4 A,2) | B,4 B,4 | A,2 B,2 G,3 G, | F,4 z2 D2- | D2 C2 A,2 !courtesy!=B,2 | %50
w: * ci- pes|e- * *|jus va-|lut a- ri- e-|tes non|_ in- ve- ni-|
 C6 A,2 | G,3 G, F,4 | z4 z2 G,2- | G,2 F,2 D,2 E,2 | F,4 _E,4 | G,6 G,2 | ^F,8 || G,4 ^F,2 G,2 | %58
w: en- tes|pa- scu- a,|non|_ in- ve- ni-|en- tes|pas- cu-|a:|et a- bi-|
 G,4 A,4 | z2 C2 A,2 B,2- | B,2 B,2 B,4- | (B,2 A,G, A,2) A,2 | B,4 z4 | F,4 F,4 | F,6 F,2 | %65
w: e- runt|ab- sque for-|* ti- tu-|* * * * di-|ne|an- te|fa- ci-|
 G,4 F,4- | F,4 D,4 | E,8 | ^F,8 || G,8 | =F,4 _E,4 | (D,3 =E, F,2) B,2- | B,2 A,4 G,2 | %73
w: am sub-|* se-|quen-|tis.|Je-|ru- sa-|lem, _ _ Je-|* ru- sa-|
 F,2 F,2 F,3 F, | F,2 G,2 F,3 B, | A,2 D,4 E,2- | E,2 ^F,2 G,2 B,2- | B,2 A,4 G,2 | =F,8 | %79
w: lem con- ver- te-|re, con- ver- te-|re ad Do-|* mi- num, ad|_ Do- mi-|num|
 B,4 G,2 G,2- | (G,2 ^F,E, F,4) | G,8 |] %82
w: De- um tu-||um.|
V:4
 G,8 | F,4 _E,4 | D,6 C,2 | B,,8 | A,,2 B,,2 C,2 D,2 | G,,4 z4 | z8 | z8 | z8 | z4 D,4- | %10
w: Fa-|cti sunt|ho- stes|e-|jus in ca- pi-|te,||||qui-|
 D,4 G,,4 | C,6 C,2 | C,2 C,2 F,2 B,,2 | F,2 C,4 D,2 | B,,8 | A,,4 z2 A,,2- | A,,2 D,2 D,2 A,,2 | %17
w: * a|Do- mi-|nus lo- cu- tus|est su- per|e-|am pro-|* pter mul- ti-|
 D,2 C,2 F,2 C,2 | D,2 A,,2 D,4- | D,2 D,2 G,,4 | D,8 || D,6 D,2 | D,4 G,,4 | A,,4 D,4- | %24
w: tu- di- nem i-|ni- qui- ta-|* tum e-|jus:|par- vu-|li e-|jus du-|
 D,2 G,2 F,4- | F,4 B,,4- | B,,2 B,,2 B,,2 B,,2 | G,,4 F,,4 | C,4 G,,4 | (B,,3 C, D,4) | A,,4 C,4 | %31
w: * cti sunt|_ in|_ ca- pti- vi-|ta- tem|an- te|fa- * *|ci- em|
 G,,4 (B,,3 A,,) | G,,8 | D,8 || D,6 G,2 | =F,2 =E,2 D,4 | z4 G,,4- | G,,4 B,,4- | B,,2 C,2 D,4 | %39
w: tri- bu- *|lan-|tis.|Et e-|gres- sus est|a|_ fi-|* li- a|
 _E,8 | D,2 D,4 D,2 | D,2 C,2 F,4 | C,4 z2 B,,2- | B,,2 B,,2 B,,2 _E,2- | E,2 C,2 C,4 | %45
w: Si-|on o- mni|de- cor e-|jus: fa-|* cti sunt prin-|* ci- pes|
 (D,3 _E, F,2 F,,2) | B,,4 z4 | z8 | z4 B,,4 | A,,4 D,4 | C,4 F,4 | C,4 (D,3 C, | B,,2) A,,2 G,,4 | %53
w: e- * * *|jus||non|in- ve-|ni- en-|tes pa- *|* scu- a,|
 D,6 C,2 | A,,2 B,,2 C,4 | G,,2 G,,4 G,,2 | D,8 || G,,4 D,2 G,,2 | C,4 A,,4 | F,6 D,2 | G,4 G,4 | %61
w: non in-|ve- ni- en-|tes pas- cu-|a:|et a- bi-|e- runt|ab- sque|for- ti-|
 F,6 F,2 | B,,4 z4 | B,,4 F,,4 | B,,6 B,,2 | G,,4 D,4- | D,4 B,,4 | A,,8 | D,8 || G,,8 | B,,4 C,4 | %71
w: tu- di-|ne|an- te|fa- ci-|am sub-|* se-|quen-|tis.|Je-|ru- sa-|
 G,,4 D,2 (B,,C, | D,=E, F,4) G,2 | D,2 D,2 B,,3 F,, | B,,2 G,,2 D,3 G,, | D,2 B,,4 C,2- | %76
w: lem, Je- ru- *|* * * sa-|lem con- ver- te-|re, con- ver- te-|re ad Do-|
 C,2 D,2 G,,2 G,2- | G,2 F,4 C,2 | D,4 B,,4- | B,,4 C,4 | D,8 | G,,8 |] %82
w: * mi- num, ad|_ Do- mi-|num De-|* um|tu-|um.|

